src/assets/icons/insta.svg

<svg width="24" height="24" viewBox="0 0 24 24" xmlns="http://www.w3.org/2000/svg">
<path fill-rule="evenodd" clip-rule="evenodd" d="M4.80005 0.300049H19.2C21.7 0.300049 23.7 2.30005 23.7 4.80005V9.60005V19.2C23.7 21.7 21.7 23.7 19.2 23.7H4.80005C2.30005 23.7 0.300049 21.7 0.300049 19.2V9.60005V4.80005C0.300049 2.30005 2.30005 0.300049 4.80005 0.300049ZM21 3.00005H20.5H17V7.00005H21V3.50005V3.00005ZM8.70005 9.60005C9.40005 8.60005 10.7 7.90005 12 7.90005C13.3 7.90005 14.6 8.60005 15.3 9.60005C15.8 10.3 16.1 11.1 16.1 12C16.1 14.3 14.2 16.1 12 16.1C9.80005 16.1 7.90005 14.3 7.90005 12C7.90005 11.1 8.20005 10.3 8.70005 9.60005ZM19.2 21.4C20.4 21.4 21.4 20.4 21.4 19.2001V9.60005H17.9C18.2 10.3 18.4 11.2 18.4 12C18.4 15.5 15.5 18.4 12 18.4C8.50005 18.4 5.60005 15.5 5.60005 12C5.60005 11.2 5.80005 10.3 6.10005 9.60005H2.60005V19.2001C2.60005 20.4 3.60005 21.4 4.80005 21.4H19.2Z"/>
</svg>

<svg width="24" height="24" xmlns="http://www.w3.org/2000/svg"><path fill-rule="evenodd" clip-rule="evenodd" d="M4.8.3h14.4c2.5 0 4.5 2 4.5 4.5v14.4c0 2.5-2 4.5-4.5 4.5H4.8c-2.5 0-4.5-2-4.5-4.5V4.8C.3 2.3 2.3.3 4.8.3ZM21 3h-4v4h4V3ZM8.7 9.6c.7-1 2-1.7 3.3-1.7 1.3 0 2.6.7 3.3 1.7.5.7.8 1.5.8 2.4 0 2.3-1.9 4.1-4.1 4.1-2.2 0-4.1-1.8-4.1-4.1 0-.9.3-1.7.8-2.4Zm10.5 11.8c1.2 0 2.2-1 2.2-2.2V9.6h-3.5c.3.7.5 1.6.5 2.4 0 3.5-2.9 6.4-6.4 6.4-3.5 0-6.4-2.9-6.4-6.4 0-.8.2-1.7.5-2.4H2.6v9.6c0 1.2 1 2.2 2.2 2.2h14.4Z"/></svg>
